X:1
T:Title
%%score ( 1 2 ) { 3 | 4 }
L:1/8
Q:1/4=88
M:2/4
K:Ab
V:1 treble nm="Grand Piano, Soprano"
V:2 treble 
V:3 treble nm="Choir Pad, The Bugle Call"
V:4 bass 
V:1
 [CE][EA] [EA][EA] | [EA] [EG]3 | [EG][EA] [GB][GB] | [GB]4 | [EA][EB] [Ac][Ac] | [Ac]2 [Ac]2 | %6
w: By~D.~C.~John * * *||||||
 [Ec][EB] [Ec][A=d] | [Ge]4 | [Ge][Ge] [Ge][Ge] | [Ae]2 [Ac]2 | [Af][Ae] [Gd][Ac] | [GB]4 | %12
w: ||||||
 [Ec][Ec] [EB][EA] | [DG] [DF]3 | [CE][CE] [DG][DG] | [CA]2 z2 | [Ae][Ae] [Ae][Ae] | e4 | c4 | %19
w: |||||||
 e2 cA | e2 cA | E2 c2 | A2 z2 | [Ae][Ae] [Ae][Ae] | e4 | c4 | [Af][Ae] [Gd][Ac] | [GB]4 | %28
w: |||||||||
 [Ed][Ec] [EB][EA] | [DG] [DF]3 | [CE][CE] [DG][DG] | [CA]4- | [CA]4 |] %33
w: |||||
V:2
 x4 | x4 | x4 | x4 | x4 | x4 | x4 | x4 | x4 | x4 | x4 | x4 | x4 | x4 | x4 | x4 | x4 | AA AA | %18
 AA Ae | x4 | x4 | x4 | x4 | x4 | AA AA | AA A2 | x4 | x4 | x4 | x4 | x4 | x4 | x4 |] %33
V:3
 A,C CC | C B,3 | B,C DD | D4 | CD EE | E2 E2 | A,B, A,B, | B,4 | B,B, B,B, | C2 E2 | DE EE | E4 | %12
 A,A, G,A, | A, A,3 | A,A, B,B, | A,2 z2 | CC CC | CC CC | EE EE | E2 C[K:bass]A, | E2 CA, | %21
 E,2 C2 | A,2 z2 | CC CC | CC CC | EE E2 | DE EE | E4 | A,A, G,A, | A, A,3 | A,A, B,B, | A,4- | %32
 A,4 |] %33
V:4
 A,,A,, A,,A,, | E, E,3 | E,E, E,E, | E,4 | A,A, A,A, | A,2 A,2 | z G, z F, | E,4 | E,E, E,E, | %9
 A,2 A,2 | z C B,A, | E,D, C,B,, | A,,A,, B,,C, | D, D,3 | E,E, E,E, | A,,2 z2 | A,A, A,A, | %17
 A,A, A,A, | A,A, .A,2 | z4 | z4 | z4 | z4 | A,A, A,A, | A,A, A,A, | A,A, A,2 | z C B,A, | %27
 E,D, C,B,, | A,,A,, B,,C, | D, D,3 | E,E, E,E, | A,,4- | A,,4 |] %33

